public/assets/img/material-icons/font_download_off.svg

<svg height="24" viewBox="0 0 24 24" width="24" xmlns="http://www.w3.org/2000/svg"><path d="m12.58 9.75-.87-.87.23-.66h.1zm-2.23-2.23.57-1.52h2.14l2.55 6.79 6.39 6.38v-15.17c0-1.1-.9-2-2-2h-15.17zm10.14 15.79-1.32-1.31h-15.17c-1.1 0-2-.9-2-2v-15.17l-1.31-1.32 1.41-1.41 19.8 19.8zm-8.39-8.38-3.3-3.3-2.39 6.37h2.08l1.09-3.07z"/></svg>

<svg xmlns="http://www.w3.org/2000/svg" width="24" height="24" viewBox="0 0 24 24"><path d="m12.58 9.75-.87-.87.23-.66h.1l.54 1.53zm-2.23-2.23L10.92 6h2.14l2.55 6.79L22 19.17V4c0-1.1-.9-2-2-2H4.83l5.52 5.52zm10.14 15.79L19.17 22H4c-1.1 0-2-.9-2-2V4.83L.69 3.51 2.1 2.1l19.8 19.8-1.41 1.41zm-8.39-8.38-3.3-3.3L6.41 18h2.08l1.09-3.07h2.52z"/></svg>
